synths/sUSD.svg

<svg width="42" height="42" viewBox="0 0 42 42" fill="none" xmlns="http://www.w3.org/2000/svg">
<g clip-path="url(#clip0_7277_57805)">
<mask id="mask0_7277_57805" style="mask-type:alpha" maskUnits="userSpaceOnUse" x="0" y="0" width="42" height="42">
<circle cx="21" cy="21" r="21" fill="url(#paint0_linear_7277_57805)"/>
</mask>
<g mask="url(#mask0_7277_57805)">
<circle cx="21" cy="21" r="21" fill="#34EDB3"/>
<circle cx="21" cy="21" r="18.2" fill="white"/>
</g>
<circle cx="21" cy="21" r="16.1" fill="#06061B"/>
<circle cx="21" cy="21" r="16.1" fill="#06061B"/>
<path d="M20.4611 28.266C19.7611 28.21 19.1031 28.056 18.4871 27.804C17.8711 27.538 17.3391 27.195 16.8911 26.775C16.4431 26.355 16.0861 25.872 15.8201 25.326C15.5541 24.78 15.4141 24.185 15.4001 23.541H17.9831C18.0111 24.227 18.2491 24.801 18.6971 25.263C19.1591 25.711 19.7471 25.97 20.4611 26.04V21.882L19.4741 21.735C18.3401 21.581 17.4371 21.154 16.7651 20.454C16.1071 19.754 15.7781 18.865 15.7781 17.787C15.7781 17.227 15.9041 16.702 16.1561 16.212C16.4081 15.708 16.7511 15.267 17.1851 14.889C17.6191 14.497 18.1161 14.182 18.6761 13.944C19.2501 13.706 19.8451 13.559 20.4611 13.503V11.55H21.9941V13.545C22.6241 13.629 23.2051 13.797 23.7371 14.049C24.2691 14.287 24.7311 14.595 25.1231 14.973C25.5151 15.351 25.8231 15.785 26.0471 16.275C26.2851 16.765 26.4181 17.29 26.4461 17.85H23.8631C23.8351 17.346 23.6461 16.912 23.2961 16.548C22.9601 16.17 22.5261 15.911 21.9941 15.771V19.614L22.7081 19.719C23.2401 19.803 23.7441 19.95 24.2201 20.16C24.6961 20.37 25.1091 20.643 25.4591 20.979C25.8231 21.315 26.1031 21.721 26.2991 22.197C26.5091 22.659 26.6141 23.184 26.6141 23.772C26.6141 24.402 26.4951 24.976 26.2571 25.494C26.0331 25.998 25.7111 26.446 25.2911 26.8381C24.8851 27.216 24.3951 27.531 23.8211 27.783C23.2611 28.021 22.6521 28.175 21.9941 28.245V30.4081H20.4611V28.266ZM21.9941 26.019C22.6521 25.907 23.1631 25.669 23.5271 25.305C23.8911 24.927 24.0731 24.451 24.0731 23.877C24.0731 23.345 23.8981 22.953 23.5481 22.701C23.1981 22.435 22.7991 22.26 22.3511 22.176L21.9941 22.113V26.019ZM20.4611 15.708C19.8731 15.792 19.3691 16.009 18.9491 16.359C18.5431 16.695 18.3401 17.15 18.3401 17.724C18.3401 18.214 18.4731 18.585 18.7391 18.837C19.0191 19.075 19.3831 19.229 19.8311 19.299L20.4611 19.404V15.708Z" fill="white"/>
</g>
<defs>
<linearGradient id="paint0_linear_7277_57805" x1="21" y1="0" x2="21" y2="61.4091" gradientUnits="userSpaceOnUse">
<stop stop-color="#08021E"/>
<stop offset="1" stop-color="#1F0777"/>
</linearGradient>
<clipPath id="clip0_7277_57805">
<rect width="42" height="42" fill="white"/>
</clipPath>
</defs>
</svg>

<svg xmlns="http://www.w3.org/2000/svg" width="42" height="42" fill="none"><g clip-path="url(#a)"><mask id="c" width="42" height="42" x="0" y="0" maskUnits="userSpaceOnUse" style="mask-type:alpha"><circle cx="21" cy="21" r="21" fill="url(#b)"/></mask><g mask="url(#c)"><circle cx="21" cy="21" r="21" fill="#34EDB3"/><circle cx="21" cy="21" r="18.2" fill="#fff"/></g><circle cx="21" cy="21" r="16.1" fill="#06061B"/><circle cx="21" cy="21" r="16.1" fill="#06061B"/><path fill="#fff" d="M20.461 28.266a6.563 6.563 0 0 1-1.974-.462 5.49 5.49 0 0 1-1.596-1.029 4.933 4.933 0 0 1-1.07-1.449 4.236 4.236 0 0 1-.42-1.785h2.582c.028.686.266 1.26.714 1.722.462.448 1.05.707 1.764.777v-4.158l-.987-.147c-1.134-.154-2.037-.581-2.709-1.281-.658-.7-.987-1.589-.987-2.667 0-.56.126-1.085.378-1.575a4.278 4.278 0 0 1 1.03-1.323 5.295 5.295 0 0 1 1.49-.945 6.069 6.069 0 0 1 1.785-.441V11.55h1.533v1.995c.63.084 1.211.252 1.743.504a4.8 4.8 0 0 1 1.386.924c.392.378.7.812.924 1.302.238.49.371 1.015.4 1.575h-2.584a1.98 1.98 0 0 0-.567-1.302 2.57 2.57 0 0 0-1.302-.777v3.843l.714.105a6.077 6.077 0 0 1 1.512.441c.476.21.89.483 1.24.819.363.336.643.742.84 1.218.21.462.314.987.314 1.575a4.11 4.11 0 0 1-1.323 3.066 5.206 5.206 0 0 1-1.47.945 6.366 6.366 0 0 1-1.827.462v2.163h-1.533v-2.142Zm1.533-2.247c.658-.112 1.17-.35 1.533-.714.364-.378.546-.854.546-1.428 0-.532-.175-.924-.525-1.176a2.802 2.802 0 0 0-1.197-.525l-.357-.063v3.906Zm-1.533-10.311a2.964 2.964 0 0 0-1.512.651c-.406.336-.609.791-.609 1.365 0 .49.133.861.4 1.113.28.238.643.392 1.091.462l.63.105v-3.696Z"/></g><defs><linearGradient id="b" x1="21" x2="21" y1="0" y2="61.409" gradientUnits="userSpaceOnUse"><stop stop-color="#08021E"/><stop offset="1" stop-color="#1F0777"/></linearGradient><clipPath id="a"><path fill="#fff" d="M0 0h42v42H0z"/></clipPath></defs></svg>
